X: 292
T: White Cocade
S: Viola Ruth "Pioneer Western Folk Tunes" 1948 p.29 #2
R: polka, march
Z: 2019 John Chambers <jc:trillian.mit.edu>
M: 2/4
L: 1/16
K: G
V: 1 name="80"
GA |\
B2B2 BAGB | d2B2 B2g2 | d2B2 BAGA | B2A2 A2GA |\
B2B2 BAGA | B2d2g3a | bagf gfe^c | d2B2 B2"//"(Bc) |
d2B2 g2(Bc) | d2B2 B2(Bc) | d2B2 g2(fg) | a2A2 A2(GA) |\
B2Bd cBAG | B2d2g3a | bagf gfed | B2G2 G2 |]

%%sep 1 1 500

